X:0114
T:Marionets.
M:6/8
L:1/8
Q:3/8=120
I: :: ::
Z:Jack Campin * www.campin.me.uk * 2009
K:G
G2B dBd|ece d3|cAc BGB|AFA G2D|
G2B dBd|ece d3|cAc BGB|AFA G3:|
B3  B3 |BAB c3|B2c d2c|B2A G2D|
B3  B3 |BAB c3|B2g dBG|AGA G3:|
<end>
<start>
